X:467
T: Shounan de huaer jiefang
N: C2085
O: China,Qinghai Huzhu
S: I, 242]
R: Shange, Tuzuling]
M: 3/4
L: 1/16
K: C
DEGAE8 | DEG2Acde | d6eg | e2GGAcde | c4
z2EE | DEGAE4 | DEG2Acde | g2e2GAcd | cdcAG2G2- | G6E2

@@@ Tune index: 7022
